dist/img/fb.svg

<svg width="48" height="49" viewBox="0 0 48 49" fill="none" xmlns="http://www.w3.org/2000/svg">
<path d="M5 0.993652C2.23858 0.993652 0 3.23223 0 5.99365V43.9937C0 46.7551 2.23858 48.9937 5 48.9937H25.5631V30.4521H19.314V22.8835H25.5631V16.5271C25.5631 11.9043 29.3106 8.15684 33.9335 8.15684H40.4659V14.963H35.7915C34.3221 14.963 33.1319 16.1542 33.1319 17.6224V22.8835H40.349L39.3515 30.4521H33.1319V48.9937H43C45.7614 48.9937 48 46.7551 48 43.9937V5.99365C48 3.23223 45.7614 0.993652 43 0.993652H5Z" fill="#3A559F"/>
</svg>

<svg width="48" height="49" fill="none" xmlns="http://www.w3.org/2000/svg"><path d="M5 .994a5 5 0 00-5 5v38a5 5 0 005 5h20.563V30.452h-6.249v-7.569h6.25v-6.356a8.37 8.37 0 018.37-8.37h6.532v6.806H35.79a2.66 2.66 0 00-2.66 2.66v5.26h7.218l-.997 7.57h-6.22v18.54H43a5 5 0 005-5v-38a5 5 0 00-5-5H5z" fill="#3A559F"/></svg>
